X:56
T: Qiong yu fu
N: C1554
O: China, Liaoning, Chaoyiang
S: III, 254]
R: Xiaodiao, Shidiao, Sizhou diao]
M: 2/4
L: 1/16
K: C
c2cde2e2 | d2c2A4 | c3de2e2 | d2d4e2 | c4
A2d2 | c4A2G2- | G2A2E4
A2A4c2 | G4A2d2 | c4A2G2- | G2A2E4

